X:WFS 13-01 05
T:Waiting For The Federals
M:2/4
K:G
P:A
B2 B>c dB AG |1,3 B2 B2 A/B/A/G/ ED :|2,4 A/B/A/G/ EF G2 G2{A} :| x{def} ||
P:B
g>f g>e dB AG |1,3 g>f g>a be ef :|2,4 A/B/A/G/ EF G2 G2{def} :| x{A} |]

% WFS 14-04 24 Staten Island Ferry

% WFS 14-04 25 South Downs

% WFS 14-04 26 Linen Hall

% WFS 14-04 27 I'll Go And Enlist For A Sailor, into WFS 14-04 28 Amoco Stomp

% WFS 14-04 29 Three Around Three, into...

